icon-themes/breeze_svg/res/baswatr.svg

<svg viewBox="0 0 24 24" xmlns="http://www.w3.org/2000/svg"><path d="m12 7a10 9.999975 0 0 0 -8.6855469 5.070312c.185109.291431.4456271.526926.7519531.689454a9 8.999978 0 0 1 7.9335938-4.759766 4 4 0 0 0 -4 4 4 4 0 0 0 4 4 4 4 0 0 0 4-4 4 4 0 0 0 -3.65625-3.9824219 9 8.999978 0 0 1 7.587891 4.7441409c.309422-.163642.571983-.402421.757812-.697266a10 9.999975 0 0 0 -8.689453-5.064453zm0 2a3 3 0 0 1 3 3 3 3 0 0 1 -3 3 3 3 0 0 1 -3-3 3 3 0 0 1 3-3zm0 1c-1.108 0-2 .892-2 2s.892 2 2 2 2-.892 2-2c0-.20481-.039023-.398205-.095703-.583984-.157885.343717-.49998.583984-.904297.583984-.554 0-1-.446-1-1 0-.404317.240267-.746412.583984-.904297-.185779-.05668-.379174-.095703-.583984-.095703z" fill="#4d4d4d"/></svg>

<svg xmlns="http://www.w3.org/2000/svg" viewBox="0 0 24 24">
 <path 
     style="fill:#4d4d4d" 
     d="M 12 7 A 10 9.999975 0 0 0 3.3144531 12.070312 C 3.4995621 12.361743 3.7600802 12.597238 4.0664062 12.759766 A 9 8.999978 0 0 1 12 8 A 4 4 0 0 0 8 12 A 4 4 0 0 0 12 16 A 4 4 0 0 0 16 12 A 4 4 0 0 0 12.34375 8.0175781 A 9 8.999978 0 0 1 19.931641 12.761719 C 20.241063 12.598077 20.503624 12.359298 20.689453 12.064453 A 10 9.999975 0 0 0 12 7 z M 12 9 A 3 3 0 0 1 15 12 A 3 3 0 0 1 12 15 A 3 3 0 0 1 9 12 A 3 3 0 0 1 12 9 z M 12 10 C 10.892 10 10 10.892 10 12 C 10 13.108 10.892 14 12 14 C 13.108 14 14 13.108 14 12 C 14 11.79519 13.960977 11.601795 13.904297 11.416016 C 13.746412 11.759733 13.404317 12 13 12 C 12.446 12 12 11.554 12 11 C 12 10.595683 12.240267 10.253588 12.583984 10.095703 C 12.398205 10.039023 12.20481 10 12 10 z "
     />
 </svg>
